X:61
T: Nancy's Fancy
S:Playford
K:G
M:4/4
L:1/4
g|fedc|BAGB|dgdB|B2 Ag|fedc|BABc|dgfd|G2 G2|
BB B/A/ B|c c c/B/ c|BB B/A/ B|A/G/F/E/ D D|BB B/A/ B|cc c/B/
c|BGAF|G2G||
 
